fs/archive_settings_28_regular.svg

<svg viewBox="0 0 28 28" fill="none" xmlns="http://www.w3.org/2000/svg" height="1em" width="1em">
  <path d="M11 13.25C11 12.8358 11.3358 12.5 11.75 12.5H16.25C16.6642 12.5 17 12.8358 17 13.25C17 13.6642 16.6642 14 16.25 14H11.75C11.3358 14 11 13.6642 11 13.25ZM5.25 3C4.00736 3 3 4.00736 3 5.25V7.25C3 8.0301 3.39701 8.71748 4 9.12111V20.25C4 22.8734 6.12665 25 8.75 25H14.4995C14.1527 24.5384 13.858 24.0355 13.6241 23.5H8.75C6.95507 23.5 5.5 22.0449 5.5 20.25V9.5H22.5V13.2696C23.0254 13.4146 23.5276 13.6153 24 13.865V9.12111C24.603 8.71748 25 8.0301 25 7.25V5.25C25 4.00736 23.9926 3 22.75 3H5.25ZM4.5 5.25C4.5 4.83579 4.83579 4.5 5.25 4.5H22.75C23.1642 4.5 23.5 4.83579 23.5 5.25V7.25C23.5 7.66421 23.1642 8 22.75 8H5.25C4.83579 8 4.5 7.66421 4.5 7.25V5.25ZM15.355 19.1944C16.4566 18.9219 17.111 17.7885 16.7962 16.6982L16.4615 15.539C16.9797 15.0823 17.5703 14.7119 18.213 14.449L19.0626 15.3431C19.8509 16.1726 21.1732 16.1728 21.9617 15.3436L22.8053 14.4565C23.449 14.7223 24.0402 15.0961 24.5582 15.5564L24.2339 16.6554C23.91 17.7529 24.5713 18.898 25.6839 19.1659L26.6611 19.4012C26.7195 19.7584 26.75 20.1255 26.75 20.5C26.75 20.8584 26.7221 21.21 26.6685 21.5526L25.6435 21.8062C24.5419 22.0788 23.8876 23.2122 24.2023 24.3024L24.5372 25.4622C24.0189 25.9187 23.4282 26.2889 22.7856 26.5517L21.9359 25.6576C21.1476 24.828 19.8253 24.8278 19.0368 25.6571L18.194 26.5433C17.5501 26.2773 16.9588 25.9033 16.4408 25.4427L16.7646 24.3452C17.0885 23.2477 16.4272 22.1027 15.3147 21.8348L14.3391 21.5998C14.2805 21.2423 14.25 20.8749 14.25 20.5C14.25 20.1417 14.2779 19.7902 14.3315 19.4477L15.355 19.1944ZM22 20.5C22 19.6716 21.3284 19 20.5 19C19.6716 19 19 19.6716 19 20.5C19 21.3285 19.6716 22 20.5 22C21.3284 22 22 21.3285 22 20.5Z" fill="#212121"/>
</svg>

<svg viewBox="0 0 28 28" fill="none" xmlns="http://www.w3.org/2000/svg" height="1em" width="1em">
  <path d="M11 13.25a.75.75 0 0 1 .75-.75h4.5a.75.75 0 0 1 0 1.5h-4.5a.75.75 0 0 1-.75-.75ZM5.25 3A2.25 2.25 0 0 0 3 5.25v2c0 .78.397 1.467 1 1.871V20.25A4.75 4.75 0 0 0 8.75 25h5.75a7.486 7.486 0 0 1-.876-1.5H8.75a3.25 3.25 0 0 1-3.25-3.25V9.5h17v3.77a7.45 7.45 0 0 1 1.5.595V9.121c.603-.404 1-1.09 1-1.871v-2A2.25 2.25 0 0 0 22.75 3H5.25ZM4.5 5.25a.75.75 0 0 1 .75-.75h17.5a.75.75 0 0 1 .75.75v2a.75.75 0 0 1-.75.75H5.25a.75.75 0 0 1-.75-.75v-2Zm10.855 13.944a2 2 0 0 0 1.441-2.496l-.334-1.159a6.202 6.202 0 0 1 1.751-1.09l.85.894a2 2 0 0 0 2.899 0l.843-.886c.644.265 1.235.64 1.753 1.1l-.324 1.098a2 2 0 0 0 1.45 2.51l.977.236a6.807 6.807 0 0 1 .008 2.152l-1.026.253a2 2 0 0 0-1.44 2.496l.334 1.16a6.206 6.206 0 0 1-1.751 1.09l-.85-.894a2 2 0 0 0-2.9 0l-.842.885a6.207 6.207 0 0 1-1.753-1.1l.324-1.098a2 2 0 0 0-1.45-2.51l-.976-.235a6.796 6.796 0 0 1-.008-2.152l1.024-.254ZM22 20.5a1.5 1.5 0 1 0-3 0 1.5 1.5 0 0 0 3 0Z" fill="#212121"/>
</svg>
